X: 61
T: String Quartet No. 14 in C\# Minor, Op. 131 mvt 6
C: Ludwig van Beethoven
%%abc-version 2.0
%%abcx-abcm2ps-target-version 5.9.1 (29 Sep 2008)
%%abc-creator hum2abc beta
%%abcx-conversion-date 2021/01/27 10:01:15
%%abc-edited-by Craig Stuart Sapp
%%abcx-initial-encoding-date 2004/09/09/
%%gracespace 0 6 6
%%humdrum-veritas 3790029845
%%humdrum-veritas-data 2781387095
%%linebreak <none>
%%barnumbers 0
L: 1/4
M: 3/4
N: Derived from quartet14-6.krn
Q: "Adagio quasi un poco andante" 1/4=52
%%staves [1 2 3 4]
V: 1 clef=treble
V: 2 clef=treble
V: 3 clef=alto
V: 4 clef=bass
K: B
[V:1] zD2- [I:setbarnb 2]| 
[V:2] z=B,2- | 
[V:3] zG2- | 
[V:4] zG,2- | 
[V:1] D2D | 
[V:2] B,2B, | 
[V:3] G2G | 
[V:4] G,2G, | 
[V:1] D2D | 
[V:2] C2B, | 
[V:3] ^^F>>DG | 
[V:4] A,2G, | 
[V:1] DDG | 
[V:2] CB,[G,E] | 
[V:3] AB2 | 
[V:4] ^^F,G,E, | 
[V:1] EB,C | 
[V:2] CD[A,D] | 
[V:3] B/>A/G^^F | 
[V:4] C,D,D, | 
[V:1] B,zg | 
[V:2] [G,D].BB | 
[V:3] .G.DD- | 
[V:4] .G,.G,G, | 
[V:1] ^^f>>dg | 
[V:2] c2B | 
[V:3] D2D- | 
[V:4] A,2G, | 
[V:1] ab2 | 
[V:2] cBB | 
[V:3] DDG | 
[V:4] ^^F,G,E | 
[V:1] b/>=a/g^^f | 
[V:2] eBc | 
[V:3] EGA | 
[V:4] CDD- | 
[V:1] g2f | 
[V:2] B2c | 
[V:3] G2F | 
[V:4] DG,A,- | 
[V:1] zze | 
[V:2] z3 | 
[V:3] E/>D/Cz | 
[V:4] A,2B,- | 
[V:1] d/>c/Bz | 
[V:2] z3 | 
[V:3] zzD | 
[V:4] B,2^^F,- | 
[V:1] z3 | 
[V:2] zzc | 
[V:3] C/>B,/A,D- | 
[V:4] F,2G,- | 
[V:1] zb/>a/g | 
[V:2] B/>A/GB | 
[V:3] D/>C/B,D | 
[V:4] G,2G, | 
[V:1] ^^f>>dg | 
[V:2] cdB | 
[V:3] DCD- | 
[V:4] A,2G, | 
[V:1] ab2 | 
[V:2] cB2 | 
[V:3] DDG | 
[V:4] ^^F,G,E | 
[V:1] b/>=a/g^^f | 
[V:2] EGc | 
[V:3] =AB^A | 
[V:4] CDD- | 
[V:1] g2f | 
[V:2] B2c- | 
[V:3] G2C- | 
[V:4] DG,A,- | 
[V:1] e/>d/cz | 
[V:2] cFz | 
[V:3] C2E | 
[V:4] A,2B,- | 
[V:1] z3 | 
[V:2] zzd | 
[V:3] D/>C/B,A,- | 
[V:4] B,2^^F,- | 
[V:1] zzc' | 
[V:2] c/>B/Az | 
[V:3] A,2D- | 
[V:4] F,2G,- | 
[V:1] b/>a/gg | 
[V:2] zd/>c/ B/B/ | 
[V:3] D/>C/ B,/>A,/ G,/d/ | 
[V:4] G,2G | 
[V:1] ^^f>>dg | 
[V:2] c2B | 
[V:3] d2d | 
[V:4] A2G | 
[V:1] ab2 | 
[V:2] cBG | 
[V:3] ede- | 
[V:4] FB,E | 
[V:1] b/>=a/g^^f | 
[V:2] =A/A/Bc | 
[V:3] e/E/GA | 
[V:4] CDD | 
[V:1] f/>e/dc | 
[V:2] ^B2G | 
[V:3] =A/>G/FE | 
[V:4] G,3- | 
[V:1] =c/>A/ G/F/ E/=a/- | 
[V:2] F/>E/ D/=C/ ^C/[E/c/]- | 
[V:3] D/>C/ ^B,/D/ C/C/- | 
[V:4] G,>G, =A,/ F,,/ | 
[V:1] a/g/- g//g//c'//e'// f'//^B,//D/8C/8 |]  
[V:2] [E/c/][E/c/] [E/c/][E/c/] d/ z/ |]  
[V:3] C/C/ C/C/ ^B,/ z/ |]  
[V:4] ^^F,,/G,,/ C,/G,,/ G,,/ z/ |]  


